X:1
T:Chopin Nocture Op. 9 No. 2
T:Nocturne Op. 9 No. 2
T:Easy Piano Version
T:Chopin
C:Chopin
%%score { 1 | ( 2 3 ) }
L:1/8
M:3/4
K:Eb
V:1 treble nm="Piano" snm="Pno."
V:2 bass 
V:3 bass 
V:1
 (B2 | g6- | g2 f2 g2 | f6 | e4) (B2 | g4 _d/c/=B/c/ | c'4 g2 | b6 | a4) (g2 | f6 | g4 d2 | e6 | %12
 c6) | (B2 d'2 c'2 | bagacd | e6) | z2 z2 (B2 | g6 | fgf=efg | f2 e4-) | e(fedef | g=Bc_dcf | %22
 =eag_d'c'g | b6 | a4) (g2 | f6 | g4 d2 | e6 | c6) | (B2 d'2 c'2 | bagacd | [Ge]6- | [Ge]6) |] %33
V:2
 z2 | z2 G,2 B,2 | z2 A,2 _C2 | z2 G,2 B,2 | z2 G,2 B,2 | z2 =E,2 G,2 | z2 =E,2 G,2 | z2 B,2 _D2 | %8
 z2 A,2 C2 | z2 D2 F2 | z2 D2 F2 | z2 E2 G2 | z2 E2 _G2 | [B,EA]6 | [B,DA]6 | z2 G,2 B,2 | %16
 z2 G,2 B,2 | z2 G,2 B,2 | z2 _C4 | z2 G,2 B,2 | z2 G,2 B,2 | C,6 | C,6 | z2 B,2 _D2 | z2 A,2 C2 | %25
 z2 D2 F2 | z2 D2 F2 | z2 E2 G2 | z2 E2 _G2 | [B,EA]6 | [B,DA]6 | z2 G,2 B,2- | [E,B,]6 |] %33
V:3
 x2 | E,6 | E,6 | E,6 | D,6 | C,6 | C,6 | F,6 | F,6 | B,6 | =B,6 | C6 | =A,6 | x6 | x6 | E,6 | %16
 E,6 | E,6 | E,6 | E,6 | D,6 | z2 [=E,B,]4 | z2 [=E,B,]4 | F,6 | F,6 | B,6 | =B,6 | C6 | =A,6 | %29
 x6 | x6 | E,6 | x6 |] %33

